img/exp-logo-1.svg

<svg width="121" height="117" viewBox="0 0 121 117" fill="none" xmlns="http://www.w3.org/2000/svg">
<g clip-path="url(#clip0_1116_193)">
<path d="M48.0469 65.3513V0.636719H73.9329V65.3513H48.0469ZM57.7012 8.06563H51.3368V14.1239H57.7012V8.06563ZM64.3311 14.1289H70.6705V8.0732H64.3311V14.1314V14.1289ZM51.3593 20.5734V26.6745H57.6662V20.5734H51.3593ZM64.3586 20.5481V26.6518H70.6705V20.5481H64.3586ZM51.3067 51.7H57.6862V45.6065H51.3067V51.7ZM64.3611 45.5509V51.7101H70.6705V45.5509H64.3611ZM64.3611 33.0735V39.157H70.6906V33.0735H64.3611ZM51.3543 33.0811V39.1519H57.6687V33.0811H51.3543Z" fill="black"/>
<path d="M17.3183 97.6848H13.9983V88.4889L13.7429 88.4082C12.6463 90.208 11.5497 92.0078 10.453 93.8101C9.53669 95.3171 7.74903 95.3095 6.83266 93.7949C5.75356 92.0078 4.66694 90.2256 3.33746 88.4688V97.6848H0V80.328C1.85025 79.8131 2.17323 79.9367 3.11714 81.5018C4.9098 84.4804 6.70497 87.4565 8.59779 90.5917C8.86819 90.213 9.08602 89.9429 9.26628 89.6501C10.8987 86.9643 12.5286 84.2785 14.1485 81.5876C15.1575 79.9115 15.15 79.9065 17.3208 80.2725V97.6848H17.3183Z" fill="black"/>
<path d="M41.3218 80.2393C42.7339 79.9011 43.7605 80.2015 44.7119 81.3955C47.143 84.4397 49.7218 87.3653 52.2431 90.3364C52.506 90.6444 52.7839 90.9397 53.2546 91.4597V80.2267H56.6321V97.6315C55.2451 97.9521 54.2035 97.7678 53.2296 96.5436C50.7809 93.4589 48.172 90.5055 45.6232 87.5016C45.3654 87.1987 45.0874 86.9135 44.6142 86.396V97.677H41.3193V80.2419L41.3218 80.2393Z" fill="black"/>
<path d="M29.2487 98.0053C24.0935 97.9851 20.1902 94.0674 20.2002 88.923C20.2102 83.7962 24.1436 79.8861 29.3013 79.876C34.4289 79.8659 38.4098 83.8063 38.4323 88.9129C38.4549 94.0775 34.4689 98.028 29.2487 98.0053ZM35.0173 88.9962C35.0348 85.5834 32.5736 82.9405 29.3513 82.9076C26.1566 82.8748 23.6203 85.5026 23.5652 88.9053C23.5101 92.2474 26.0589 94.9635 29.2587 94.9761C32.511 94.9888 34.9997 92.4064 35.0148 88.9962H35.0173Z" fill="black"/>
<path d="M106.165 80.2443C108.656 80.2443 111.112 80.0878 113.541 80.2898C115.895 80.4842 117.297 82.0315 117.7 84.316C118.05 86.3102 117.084 88.2942 115.221 89.3948C115.043 89.5008 114.86 89.5942 114.553 89.7633C116.666 92.381 118.746 94.9558 121.002 97.7476C119.572 97.7476 118.383 97.8006 117.206 97.7123C116.878 97.687 116.523 97.2983 116.278 96.9954C114.563 94.8826 110.629 89.7684 110.629 89.7684L109.46 89.7583V97.6769H106.168V80.2418L106.165 80.2443ZM109.51 86.9463C109.991 86.9463 110.321 86.9463 110.649 86.9463C111.313 86.9463 111.979 86.9589 112.642 86.9336C113.741 86.8958 114.307 86.2799 114.377 85.1995C114.447 84.0964 113.854 83.2987 112.76 83.2053C111.706 83.1144 110.637 83.1851 109.51 83.1851V86.9463Z" fill="black"/>
<path d="M95.7396 89.8417V94.6554H102.925V97.6694H92.3896V80.2217H102.675V83.1195H95.7947V86.7974H100.93V89.8417H95.7371H95.7396Z" fill="black"/>
<path d="M75.2666 82.4813C74.5631 83.226 73.9071 83.9227 73.2586 84.6093C69.5556 82.2743 66.5311 82.4561 64.428 85.1015C62.5452 87.4718 62.753 91.1875 64.8836 93.2902C67.3498 95.7211 70.7048 95.509 74.1074 92.6465C74.8034 93.2675 75.5145 93.9011 76.2155 94.5296C74.6256 97.2306 70.487 98.5987 66.6237 97.7329C62.9032 96.8999 60.1892 93.7547 59.7961 89.8194C59.413 85.98 61.446 82.34 64.8561 80.7674C68.3914 79.1367 72.8355 79.8334 75.2641 82.4813H75.2666Z" fill="black"/>
<path d="M89.4651 94.7036V97.6444H78.8594V80.2295H82.1443V94.7061H89.4651V94.7036Z" fill="black"/>
<path d="M53.9681 108.559V116.352H51.7197V104.407C52.6937 104.086 53.3672 104.339 54.0156 105.129C55.8934 107.421 57.8488 109.647 59.987 112.146V104.339H62.2003V116.336C61.2389 116.637 60.5679 116.344 59.9269 115.562C58.0567 113.28 56.1062 111.063 53.9656 108.562L53.9681 108.559Z" fill="black"/>
<path d="M38.7577 105.805C38.2519 106.36 37.8062 106.847 37.3706 107.324C34.8619 105.762 33.1017 105.767 31.5294 107.312C30.0497 108.763 29.8469 111.171 31.0637 112.842C32.2755 114.508 34.6215 115.023 36.4467 114.051C37.8137 113.324 36.8974 112.108 37.2654 110.969H34.0982V108.922C34.3736 108.899 34.614 108.862 34.8543 108.862C36.3466 108.856 37.8388 108.859 39.4762 108.859C39.4762 110.618 39.5613 112.29 39.4236 113.945C39.3811 114.448 38.8052 115.006 38.3395 115.356C35.7031 117.348 31.5494 116.911 29.4613 114.478C27.3482 112.014 27.4834 108.155 29.7643 105.878C32.1103 103.535 35.996 103.457 38.7577 105.805Z" fill="black"/>
<path d="M70.535 104.336H72.6357C72.6357 105.886 72.6282 107.423 72.6382 108.958C72.6457 110.008 72.6006 111.066 72.7158 112.106C72.8885 113.691 74.0978 114.635 75.6702 114.542C77.1924 114.451 78.264 113.438 78.3041 111.889C78.3617 109.619 78.3241 107.347 78.3316 105.078C78.3316 104.874 78.3592 104.669 78.3817 104.374H80.4798C80.4798 107.269 80.6826 110.167 80.4147 113.022C80.2044 115.261 78.0162 116.639 75.5099 116.639C72.9937 116.639 70.8054 115.274 70.5976 113.042C70.3297 110.187 70.5325 107.284 70.5325 104.338L70.535 104.336Z" fill="black"/>
<path d="M49.2837 104.344V106.29H44.5241V108.845H48.0018V110.914H44.5091V114.32H49.4439V116.352H42.2031V104.346H49.2837V104.344Z" fill="black"/>
<path d="M82.1895 114.683C82.7378 114.193 83.2035 113.779 83.5915 113.436C84.5329 113.814 85.3792 114.269 86.2856 114.486C87.1594 114.693 87.9881 114.385 88.281 113.416C88.5664 112.476 88.0131 111.898 87.227 111.525C86.3982 111.131 85.5419 110.8 84.7232 110.391C83.4563 109.758 82.7077 108.746 82.8104 107.277C82.9105 105.82 83.7718 104.866 85.0888 104.396C86.894 103.75 88.5915 104.045 90.2339 105.229C89.8458 105.807 89.5028 106.32 89.305 106.615C88.1583 106.484 87.1919 106.259 86.2455 106.317C85.8549 106.343 85.2515 106.941 85.2014 107.337C85.1539 107.713 85.6171 108.301 86.0101 108.554C86.7037 109.001 87.5224 109.245 88.271 109.611C90.2289 110.573 91.0076 112.037 90.5569 113.847C90.1463 115.503 88.3036 116.763 86.4082 116.624C84.8709 116.51 83.4939 115.973 82.192 114.685L82.1895 114.683Z" fill="black"/>
<path d="M65.252 104.326H67.3851V116.339H65.252V104.326Z" fill="black"/>
</g>
<defs>
<clipPath id="clip0_1116_193">
<rect width="121" height="116" fill="white" transform="translate(0 0.636719)"/>
</clipPath>
</defs>
</svg>

<svg width="121" height="117" viewBox="0 0 121 117" fill="none" xmlns="http://www.w3.org/2000/svg"><g clip-path="url(#clip0_1116_193)" fill="#000"><path d="M48.047 65.351V.637h25.886V65.35H48.047zM57.7 8.066h-6.364v6.058H57.7V8.066zm6.63 6.063h6.34V8.073h-6.34v6.058-.002zm-12.97 6.444v6.101h6.307v-6.1H51.36zm13-.025v6.104h6.312v-6.104H64.36zM51.307 51.7h6.38v-6.094h-6.38V51.7zm13.054-6.15v6.16h6.31v-6.16h-6.31zm0-12.476v6.083h6.33v-6.083h-6.33zm-13.007.007v6.07h6.315v-6.07h-6.315zM17.318 97.685h-3.32v-9.196l-.255-.08-3.29 5.401c-.916 1.507-2.704 1.5-3.62-.015-1.08-1.787-2.166-3.57-3.496-5.326v9.216H0V80.328c1.85-.515 2.173-.391 3.117 1.174 1.793 2.978 3.588 5.955 5.48 9.09.271-.379.489-.65.67-.942 1.632-2.686 3.262-5.372 4.882-8.062 1.009-1.676 1.001-1.681 3.172-1.316v17.413h-.003zM41.322 80.24c1.412-.339 2.438-.038 3.39 1.156 2.431 3.044 5.01 5.97 7.531 8.94.263.308.54.604 1.012 1.124V80.227h3.377V97.63c-1.387.321-2.428.137-3.402-1.087-2.45-3.085-5.058-6.038-7.607-9.042-.258-.303-.536-.588-1.009-1.106v11.281H41.32V80.242l.003-.003zM29.249 98.005c-5.155-.02-9.059-3.938-9.049-9.082.01-5.127 3.944-9.037 9.101-9.047 5.128-.01 9.109 3.93 9.131 9.037.023 5.165-3.963 9.115-9.183 9.092zm5.768-9.009c.018-3.413-2.443-6.055-5.666-6.088-3.194-.033-5.73 2.595-5.786 5.997-.055 3.342 2.494 6.058 5.694 6.071 3.252.013 5.74-2.57 5.756-5.98h.002zm71.148-8.752c2.491 0 4.947-.156 7.376.046 2.354.194 3.756 1.741 4.159 4.026.35 1.994-.616 3.978-2.479 5.079-.178.106-.361.2-.668.368 2.113 2.618 4.193 5.193 6.449 7.985-1.43 0-2.619.053-3.796-.036-.328-.025-.683-.414-.928-.717-1.715-2.112-5.649-7.227-5.649-7.227l-1.169-.01v7.919h-3.292V80.242l-.003.002zm3.345 6.702h1.139c.664 0 1.33.013 1.993-.012 1.099-.038 1.665-.654 1.735-1.734.07-1.104-.523-1.901-1.617-1.995-1.054-.09-2.123-.02-3.25-.02v3.761zm-13.77 2.896v4.813h7.185v3.014H92.39V80.222h10.285v2.898h-6.88v3.677h5.135v3.045h-5.193.003zm-20.473-7.361l-2.008 2.128c-3.703-2.335-6.728-2.153-8.831.493-1.883 2.37-1.675 6.085.456 8.188 2.466 2.431 5.82 2.219 9.223-.644.696.621 1.407 1.255 2.109 1.884-1.59 2.7-5.729 4.069-9.592 3.203-3.72-.833-6.435-3.978-6.828-7.914-.383-3.839 1.65-7.479 5.06-9.052 3.535-1.63 7.98-.934 10.408 1.714h.003zm14.198 12.223v2.94H78.86V80.23h3.285v14.477h7.321v-.002zm-35.497 13.855v7.793H51.72v-11.945c.974-.321 1.647-.068 2.296.722 1.877 2.292 3.833 4.518 5.971 7.017v-7.807H62.2v11.997c-.961.301-1.632.008-2.273-.774-1.87-2.282-3.82-4.499-5.961-7l.002-.003zm-15.21-2.754l-1.387 1.519c-2.51-1.562-4.27-1.557-5.842-.012-1.48 1.451-1.682 3.859-.465 5.53 1.212 1.666 3.557 2.181 5.383 1.209 1.367-.727.45-1.943.818-3.082h-3.167v-2.047c.276-.023.516-.06.756-.06 1.493-.006 2.985-.003 4.622-.003 0 1.759.085 3.431-.052 5.086-.043.503-.619 1.061-1.084 1.411-2.637 1.992-6.79 1.555-8.879-.878-2.113-2.464-1.978-6.323.303-8.6 2.346-2.343 6.232-2.421 8.994-.073zm31.777-1.469h2.1c0 1.55-.007 3.087.003 4.622.008 1.05-.037 2.108.078 3.148.172 1.585 1.382 2.529 2.954 2.436 1.522-.091 2.594-1.104 2.634-2.653.058-2.27.02-4.542.028-6.811 0-.204.027-.409.05-.704h2.098c0 2.895.203 5.793-.065 8.648-.21 2.239-2.399 3.617-4.905 3.617-2.516 0-4.705-1.365-4.912-3.597-.268-2.855-.066-5.758-.066-8.704l.003-.002zm-21.251.008v1.946h-4.76v2.555h3.478v2.069h-3.493v3.406h4.935v2.032h-7.24v-12.006h7.08v-.002zm32.906 10.339c.548-.49 1.014-.904 1.401-1.247.942.378 1.788.833 2.695 1.05.873.207 1.702-.101 1.995-1.07.285-.94-.268-1.518-1.054-1.891-.829-.394-1.685-.725-2.504-1.134-1.267-.633-2.015-1.645-1.913-3.114.1-1.457.962-2.411 2.279-2.881 1.805-.646 3.502-.351 5.145.833l-.929 1.386c-1.147-.131-2.113-.356-3.06-.298-.39.026-.994.624-1.044 1.02-.047.376.416.964.81 1.217.693.447 1.511.691 2.26 1.057 1.958.962 2.737 2.426 2.286 4.236-.41 1.656-2.253 2.916-4.149 2.777-1.537-.114-2.914-.651-4.216-1.939l-.002-.002zm-16.938-10.357h2.133v12.013h-2.133v-12.013z"/></g><defs><clipPath id="clip0_1116_193"><path fill="#fff" transform="translate(0 .637)" d="M0 0h121v116H0z"/></clipPath></defs></svg>
